X: 37848
T: Sophie's Rescue
R: jig
M: 6/8
K: Dmajor
BFG BGF|DFG ~d2d|BFG BGF|~d3 GBG|
BFG BGF|DFG ~d2d|dcB Gdc|1 B2c2d2:|2 B2A2z2||
|:G3 B3|c3 d3|dcB cAB|A3 AGF|
G3 B3|c3 d3|dcB cBA|1 =e4z2:|2 B4z2||

